X: 4093
T: Bloggers Call, The
R: reel
M: 4/4
K: Dmajor
A2 Bd ~e3 a|EA ~A2 AGEG|dBAB GEDG|ageg d2 z e|
A2 Bd ~e3 a|EA ~A2 AGEG|dBAB GEDG|1 cedB A2 A/A/A:|2 cedB ABcd||
eaag egdG|ea ~a2 cAcd|BG ~G2 AGEG|D/D/D BD GABd|
eaag ~e3 a|ea ~a2 cAcd|cedB ABcd|ageg dBGB|
eaag egdG|ea ~a2 cAcd|D/D/D BD GABG|BG ~G2 AGEG|
A2 Bd ~e3 a|EA ~A2 AGEG|cedB A3 z|ageg dBGB||

